src/3-context/sign--turn-line.svg

<svg width="1300" height="1000" viewBox="0 0 1300 1000" fill="none" xmlns="http://www.w3.org/2000/svg"><path fill-rule="evenodd" clip-rule="evenodd" d="M115 69c-8.284 0-15 6.716-15 15v90c0 8.284 6.716 15 15 15h220c8.284 0 15-6.716 15-15V84c0-8.284-6.716-15-15-15H115Zm2 7c-5.523 0-10 4.477-10 10v86c0 5.523 4.477 10 10 10h216c5.523 0 10-4.477 10-10V86c0-5.523-4.477-10-10-10H117Z" fill="#000"/><path d="M130 0h7v76h-7V0Zm183 0h7v76h-7V0ZM179.508 146.736a3.618 3.618 0 1 1-6.857-2.305l10.904-31.669a6.24 6.24 0 0 1 11.794-.002l10.92 31.67c.81 2.348-.935 4.796-3.419 4.796a3.616 3.616 0 0 1-3.436-2.488l-9.807-29.842h-.311l-9.788 29.84Zm-.564-13.457h20.976v5.918h-20.976v-5.918ZM241.043 150c-3.198 0-5.943-.827-8.235-2.482-2.279-1.668-4.034-4.071-5.264-7.209-1.217-3.151-1.825-6.944-1.825-11.379.013-4.434.628-8.208 1.845-11.319 1.23-3.124 2.984-5.507 5.263-7.149 2.292-1.641 5.031-2.462 8.216-2.462 3.185 0 5.924.821 8.216 2.462 2.292 1.642 4.046 4.025 5.264 7.149 1.23 3.125 1.845 6.898 1.845 11.319 0 4.449-.615 8.248-1.845 11.399-1.218 3.138-2.972 5.534-5.264 7.189-2.279 1.655-5.018 2.482-8.216 2.482Zm0-6.216c2.486 0 4.448-1.251 5.885-3.753 1.45-2.515 2.176-6.215 2.176-11.101 0-3.23-.331-5.944-.991-8.141-.66-2.198-1.593-3.853-2.797-4.965-1.204-1.125-2.628-1.688-4.273-1.688-2.473 0-4.428 1.258-5.865 3.773-1.438 2.502-2.163 6.176-2.176 11.021-.013 3.244.304 5.971.952 8.182.66 2.211 1.593 3.879 2.797 5.004 1.204 1.112 2.635 1.668 4.292 1.668ZM274 108.556a5 5 0 0 1 5 5v32.067a3.603 3.603 0 0 1-7.206 0v-29.898h-.233l-4.928 3.219c-1.882 1.229-4.375-.121-4.375-2.368 0-.953.479-1.841 1.275-2.364l7.361-4.835a4.997 4.997 0 0 1 2.745-.821H274Z" fill="#000"/><path fill-rule="evenodd" clip-rule="evenodd" d="M1016.37 335.822c-3.63 1.731-10.6 2.844-12.43 3.009 0 0-8.276.655-13.253-.762-5.609-1.596-8.809-3.353-12.863-7.482-2.744-2.794-5.138-7.804-6.247-10.348-.455-1.043-.8-2.126-1.088-3.227l-6.182-23.706s-.797-3.436-.985-5.678c-.447-5.332.002-8.525 1.74-13.601 1.784-5.214 3.494-8.07 7.238-12.161 3.99-4.361 6.965-6.374 12.42-8.741 4.235-1.838 6.858-2.515 11.462-2.955 4.958-.266 6.828-.117 11.668.931 4.87 1.158 9.93 3.522 13.88 6.44 3.95 2.918 6.86 6.528 9.24 10.719 2.39 4.192 3.66 8.328 4.08 13.093.15 1.797.14 3.961.01 5.762l-2.76 24.167c-.15 1.246-.36 2.482-.7 3.691-.79 2.874-2.48 8.425-4.35 11.251-2.59 3.917-6.53 7.528-10.88 9.598Zm-3.03-6.459c-2.92 1.446-8.53 2.362-10.01 2.495 0 0-6.668.524-10.683-.685-4.524-1.362-7.109-2.853-10.389-6.344-2.157-2.295-4.054-6.351-4.988-8.549-.427-1.006-.748-2.048-1.016-3.107l-5.009-19.794s-.654-2.897-.812-4.786c-.378-4.494-.026-7.182 1.358-11.453 1.421-4.386 2.79-6.787 5.794-10.221 3.201-3.661 5.592-5.347 9.98-7.323 3.407-1.535 5.519-2.096 9.227-2.453 3.998-.208 5.498-.076 9.408.822 3.92.992 8.01 2.999 11.21 5.47 3.19 2.471 5.54 5.522 7.48 9.06 1.93 3.539 2.97 7.027 3.32 11.043.13 1.514.13 3.337.03 4.854l-2.13 20.124c-.12 1.2-.32 2.389-.62 3.555-.66 2.472-1.96 6.938-3.41 9.242-2.08 3.291-5.25 6.32-8.74 8.05Z" fill="#000"/><path d="m1071.09 881.233-14.09-6.232 1-158s-11.06-146-11.5-157c-3.5-88.5-15.5-196-18-202.501-2.5-6.501-7-16.499-18.5-17.499-36.872-3.205-55.624 19.5-69 47-17.528 36.035-29 130-29 130l10 61.5 13.841 32.65A21.896 21.896 0 0 0 956 624.501l2.5 119-16.748 134.464a6.339 6.339 0 0 0 5.248 7.036v15h7.5v-23.023a4.88 4.88 0 0 1-4.846-5.46L965 743.414l-2-115.583-8.882-109.595a7.506 7.506 0 0 1 .319-2.853l29.779-95.157a1.928 1.928 0 0 0-3.663-1.201L947 516.778l5 60.034 3.427 39.187a.768.768 0 0 1-.765.835 15.36 15.36 0 0 1-14.135-9.353L927.5 576.812l-9.5-60.034s14.321-102.354 32.999-136.561c15.466-28.324 37.862-33.891 51.371-34.387 7.51-.276 15.41 2.878 17.8 10.012 5.74 17.21 13.93 66.148 17.33 204.46L1008 878.978l19.97 7.965a9.997 9.997 0 0 1 6.27 10.087l-.24 2.971h7l-.38-5.943a15.002 15.002 0 0 0-9.55-13.019l-15.57-6.038 14.5-158 12-140 9 140-2 161.94 19.88 8a10.01 10.01 0 0 1 6.11 7.489l1.01 5.571h7v-.477a20 20 0 0 0-11.91-18.291Z" fill="#000"/><path fill-rule="evenodd" clip-rule="evenodd" d="M825.372 335.822c-3.631 1.731-10.598 2.844-12.433 3.009 0 0-8.275.655-13.252-.762-5.609-1.596-8.809-3.353-12.863-7.482-2.744-2.794-5.138-7.804-6.247-10.348-.455-1.043-.8-2.126-1.088-3.227l-6.182-23.706s-.797-3.436-.985-5.678c-.447-5.332.002-8.525 1.74-13.601 1.784-5.214 3.494-8.07 7.238-12.161 3.99-4.361 6.965-6.374 12.42-8.741 4.235-1.838 6.858-2.515 11.462-2.955 4.958-.266 6.827-.117 11.673.931 4.86 1.158 9.925 3.522 13.877 6.44 3.953 2.918 6.856 6.528 9.24 10.719 2.384 4.192 3.657 8.328 4.076 13.093.156 1.797.146 3.961.015 5.762l-2.768 24.167a24.201 24.201 0 0 1-.693 3.691c-.794 2.874-2.478 8.425-4.349 11.251-2.593 3.917-6.536 7.528-10.881 9.598Zm-3.033-6.459c-2.921 1.446-8.532 2.362-10.01 2.495 0 0-6.667.524-10.682-.685-4.524-1.362-7.109-2.853-10.389-6.344-2.157-2.295-4.054-6.351-4.988-8.549-.427-1.006-.748-2.048-1.016-3.107l-5.009-19.794s-.654-2.897-.812-4.786c-.378-4.494-.026-7.182 1.358-11.453 1.421-4.386 2.79-6.787 5.794-10.221 3.201-3.661 5.592-5.347 9.98-7.323 3.407-1.535 5.519-2.096 9.227-2.453 3.995-.208 5.501-.076 9.41.822 3.92.992 8.009 2.999 11.203 5.47 3.194 2.471 5.546 5.522 7.481 9.06 1.934 3.539 2.973 7.027 3.326 11.043.132 1.514.13 3.337.031 4.854l-2.128 20.124a23.629 23.629 0 0 1-.63 3.555c-.651 2.472-1.955 6.938-3.409 9.242-2.078 3.291-5.243 6.32-8.737 8.05Z" fill="#000"/><path d="M880.09 881.233 866 875.001l1-158s-11.065-146-11.5-157c-3.5-88.5-15.5-196-18-202.501-2.5-6.501-7-16.499-18.5-17.499-36.872-3.205-55.624 19.5-69 47-17.528 36.035-29 130-29 130l10 61.5 13.841 32.65A21.896 21.896 0 0 0 765 624.501l2.5 119-16.748 134.464a6.339 6.339 0 0 0 5.248 7.036v15h7.5v-23.023a4.88 4.88 0 0 1-4.846-5.46L774 743.414l-2-115.583-8.882-109.595a7.506 7.506 0 0 1 .319-2.853l29.779-95.157a1.928 1.928 0 0 0-3.663-1.201L756 516.778l5 60.034 3.427 39.187a.768.768 0 0 1-.765.835 15.36 15.36 0 0 1-14.135-9.353L736.5 576.812l-9.5-60.034s14.321-102.354 32.999-136.561c15.466-28.324 37.862-33.891 51.368-34.387 7.516-.276 15.416 2.878 17.799 10.012 5.749 17.21 13.932 66.148 17.334 204.46L817 878.978l19.974 7.965a9.998 9.998 0 0 1 6.264 10.087l-.238 2.971h7l-.383-5.943a15 15 0 0 0-9.546-13.019l-15.571-6.038 14.5-158 12-140 9 140-2 161.94 19.881 8a10 10 0 0 1 6.106 7.489l1.013 5.571h7v-.477a20 20 0 0 0-11.91-18.291Z" fill="#000"/><path fill-rule="evenodd" clip-rule="evenodd" d="M634.372 335.822c-3.631 1.731-10.598 2.844-12.433 3.009 0 0-8.275.655-13.252-.762-5.609-1.596-8.809-3.353-12.863-7.482-2.744-2.794-5.138-7.804-6.247-10.348-.455-1.043-.801-2.126-1.088-3.227l-6.182-23.706s-.797-3.436-.985-5.678c-.447-5.332.002-8.525 1.74-13.601 1.784-5.214 3.494-8.07 7.238-12.161 3.99-4.361 6.965-6.374 12.42-8.741 4.235-1.838 6.858-2.515 11.462-2.955 4.958-.266 6.827-.117 11.673.931 4.86 1.158 9.925 3.522 13.877 6.44 3.953 2.918 6.856 6.528 9.24 10.719 2.384 4.192 3.657 8.328 4.076 13.093.156 1.797.146 3.961.015 5.762l-2.768 24.167a24.201 24.201 0 0 1-.693 3.691c-.794 2.874-2.478 8.425-4.349 11.251-2.593 3.917-6.536 7.528-10.881 9.598Zm-3.033-6.459c-2.921 1.446-8.532 2.362-10.01 2.495 0 0-6.667.524-10.682-.685-4.524-1.362-7.109-2.853-10.389-6.344-2.157-2.295-4.055-6.351-4.988-8.549-.427-1.006-.748-2.048-1.016-3.107l-5.009-19.794s-.654-2.897-.812-4.786c-.378-4.494-.026-7.182 1.358-11.453 1.421-4.386 2.79-6.787 5.794-10.221 3.201-3.661 5.592-5.347 9.98-7.323 3.407-1.535 5.519-2.096 9.227-2.453 3.995-.208 5.501-.076 9.41.822 3.92.992 8.009 2.999 11.203 5.47 3.194 2.471 5.546 5.522 7.481 9.06 1.934 3.539 2.973 7.027 3.326 11.043.132 1.514.13 3.337.031 4.854l-2.128 20.124a23.629 23.629 0 0 1-.63 3.555c-.651 2.472-1.955 6.938-3.409 9.242-2.078 3.291-5.243 6.32-8.737 8.05Z" fill="#000"/><path d="M689.09 881.233 675 875.001l1-158s-11.065-146-11.5-157c-3.5-88.5-15.5-196-18-202.501-2.5-6.501-7-16.499-18.5-17.499-36.872-3.205-55.624 19.5-69 47-17.528 36.035-29 130-29 130l10 61.5 13.841 32.65A21.896 21.896 0 0 0 574 624.501l2.5 119-16.748 134.464a6.339 6.339 0 0 0 5.248 7.036v15h7.5v-23.023a4.88 4.88 0 0 1-4.846-5.46L583 743.414l-2-115.583-8.882-109.595a7.506 7.506 0 0 1 .319-2.853l29.779-95.157a1.928 1.928 0 0 0-3.663-1.201L565 516.778l5 60.034 3.427 39.187a.768.768 0 0 1-.765.835 15.36 15.36 0 0 1-14.135-9.353L545.5 576.812l-9.5-60.034s14.321-102.354 32.999-136.561c15.466-28.324 37.862-33.891 51.368-34.387 7.516-.276 15.416 2.878 17.799 10.012 5.749 17.21 13.932 66.148 17.334 204.46L626 878.978l19.974 7.965a9.998 9.998 0 0 1 6.264 10.087l-.238 2.971h7l-.383-5.943a15 15 0 0 0-9.546-13.019l-15.571-6.038 14.5-158 12-140 9 140-2 161.94 19.881 8a10 10 0 0 1 6.106 7.489l1.013 5.571h7v-.477a20 20 0 0 0-11.91-18.291Z" fill="#000"/></svg>

<svg width="1300" height="1000" viewBox="0 0 1300 1000" fill="none" xmlns="http://www.w3.org/2000/svg">
<path fill-rule="evenodd" clip-rule="evenodd" d="M115 69C106.716 69 100 75.7157 100 84V174C100 182.284 106.716 189 115 189H335C343.284 189 350 182.284 350 174V84C350 75.7157 343.284 69 335 69H115ZM117 76C111.477 76 107 80.4771 107 86V172C107 177.523 111.477 182 117 182H333C338.523 182 343 177.523 343 172V86C343 80.4771 338.523 76 333 76H117Z" fill="black"/>
<path d="M130 0H137V76H130V0Z" fill="black"/>
<path d="M313 0H320V76H313V0Z" fill="black"/>
<path d="M179.508 146.736C179.021 148.221 177.634 149.226 176.071 149.226C173.587 149.226 171.842 146.779 172.651 144.431L183.555 112.762C184.422 110.246 186.791 108.556 189.453 108.556C192.114 108.556 194.482 110.244 195.349 112.76L206.269 144.43C207.079 146.778 205.334 149.226 202.85 149.226C201.287 149.226 199.901 148.222 199.414 146.738L189.607 116.896H189.296L179.508 146.736ZM178.944 133.279H199.92V139.197H178.944V133.279Z" fill="black"/>
<path d="M241.043 150C237.845 150 235.1 149.173 232.808 147.518C230.529 145.85 228.774 143.447 227.544 140.309C226.327 137.158 225.719 133.365 225.719 128.93C225.732 124.496 226.347 120.722 227.564 117.611C228.794 114.487 230.548 112.104 232.827 110.462C235.119 108.821 237.858 108 241.043 108C244.228 108 246.967 108.821 249.259 110.462C251.551 112.104 253.305 114.487 254.523 117.611C255.753 120.736 256.368 124.509 256.368 128.93C256.368 133.379 255.753 137.178 254.523 140.329C253.305 143.467 251.551 145.863 249.259 147.518C246.98 149.173 244.241 150 241.043 150ZM241.043 143.784C243.529 143.784 245.491 142.533 246.928 140.031C248.378 137.516 249.104 133.816 249.104 128.93C249.104 125.7 248.773 122.986 248.113 120.789C247.453 118.591 246.52 116.936 245.316 115.824C244.112 114.699 242.688 114.136 241.043 114.136C238.57 114.136 236.615 115.394 235.178 117.909C233.74 120.411 233.015 124.085 233.002 128.93C232.989 132.174 233.306 134.901 233.954 137.112C234.614 139.323 235.547 140.991 236.751 142.116C237.955 143.228 239.386 143.784 241.043 143.784Z" fill="black"/>
<path d="M274 108.556C276.761 108.556 279 110.795 279 113.556V145.623C279 147.612 277.387 149.226 275.397 149.226C273.407 149.226 271.794 147.612 271.794 145.623V115.725H271.561L266.633 118.944C264.751 120.173 262.258 118.823 262.258 116.576C262.258 115.623 262.737 114.735 263.533 114.212L270.894 109.377C271.709 108.841 272.664 108.556 273.639 108.556H274Z" fill="black"/>
<path fill-rule="evenodd" clip-rule="evenodd" d="M1016.37 335.822C1012.74 337.553 1005.77 338.666 1003.94 338.831C1003.94 338.831 995.664 339.486 990.687 338.069C985.078 336.473 981.878 334.716 977.824 330.587C975.08 327.793 972.686 322.783 971.577 320.239C971.122 319.196 970.777 318.113 970.489 317.012L964.307 293.306C964.307 293.306 963.51 289.87 963.322 287.628C962.875 282.296 963.324 279.103 965.062 274.027C966.846 268.813 968.556 265.957 972.3 261.866C976.29 257.505 979.265 255.492 984.72 253.125C988.955 251.287 991.578 250.61 996.182 250.17C1001.14 249.904 1003.01 250.053 1007.85 251.101C1012.72 252.259 1017.78 254.623 1021.73 257.541C1025.68 260.459 1028.59 264.069 1030.97 268.26C1033.36 272.452 1034.63 276.588 1035.05 281.353C1035.2 283.15 1035.19 285.314 1035.06 287.115L1032.3 311.282C1032.15 312.528 1031.94 313.764 1031.6 314.973C1030.81 317.847 1029.12 323.398 1027.25 326.224C1024.66 330.141 1020.72 333.752 1016.37 335.822ZM1013.34 329.363C1010.42 330.809 1004.81 331.725 1003.33 331.858C1003.33 331.858 996.662 332.382 992.647 331.173C988.123 329.811 985.538 328.32 982.258 324.829C980.101 322.534 978.204 318.478 977.27 316.28C976.843 315.274 976.522 314.232 976.254 313.173L971.245 293.379C971.245 293.379 970.591 290.482 970.433 288.593C970.055 284.099 970.407 281.411 971.791 277.14C973.212 272.754 974.581 270.353 977.585 266.919C980.786 263.258 983.177 261.572 987.565 259.596C990.972 258.061 993.084 257.5 996.792 257.143C1000.79 256.935 1002.29 257.067 1006.2 257.965C1010.12 258.957 1014.21 260.964 1017.41 263.435C1020.6 265.906 1022.95 268.957 1024.89 272.495C1026.82 276.034 1027.86 279.522 1028.21 283.538C1028.34 285.052 1028.34 286.875 1028.24 288.392L1026.11 308.516C1025.99 309.716 1025.79 310.905 1025.49 312.071C1024.83 314.543 1023.53 319.009 1022.08 321.313C1020 324.604 1016.83 327.633 1013.34 329.363Z" fill="black"/>
<path d="M1071.09 881.233L1057 875.001L1058 717.001C1058 717.001 1046.94 571.001 1046.5 560.001C1043 471.501 1031 364.001 1028.5 357.5C1026 350.999 1021.5 341.001 1010 340.001C973.128 336.796 954.376 359.501 941 387.001C923.472 423.036 912 517.001 912 517.001L922 578.501L935.841 611.151C939.272 619.244 947.21 624.501 956 624.501L958.5 743.501L941.752 877.965C941.332 881.338 943.647 884.442 947 885.001V900.001L954.5 900.001V876.978C951.574 876.978 949.306 874.422 949.654 871.518L965 743.414L963 627.831L954.118 518.236C954.04 517.273 954.148 516.304 954.437 515.383L984.216 420.226C984.604 418.985 983.677 417.723 982.376 417.723C981.553 417.723 980.82 418.246 980.553 419.025L947 516.778L952 576.812L955.427 615.999C955.466 616.448 955.113 616.834 954.662 616.834C948.501 616.834 942.936 613.151 940.527 607.481L927.5 576.812L918 516.778C918 516.778 932.321 414.424 950.999 380.217C966.465 351.893 988.861 346.326 1002.37 345.83C1009.88 345.554 1017.78 348.708 1020.17 355.842C1025.91 373.052 1034.1 421.99 1037.5 560.302L1008 878.978L1027.97 886.943C1032.05 888.567 1034.59 892.658 1034.24 897.03L1034 900.001L1041 900.001L1040.62 894.058C1040.24 888.23 1036.52 883.15 1031.07 881.039L1015.5 875.001L1030 717.001L1042 577.001L1051 717.001L1049 878.941L1068.88 886.941C1072.07 888.223 1074.37 891.051 1074.99 894.43L1076 900.001L1083 900.001V899.524C1083 891.607 1078.33 884.435 1071.09 881.233Z" fill="black"/>
<path fill-rule="evenodd" clip-rule="evenodd" d="M825.372 335.822C821.741 337.553 814.774 338.666 812.939 338.831C812.939 338.831 804.664 339.486 799.687 338.069C794.078 336.473 790.878 334.716 786.824 330.587C784.08 327.793 781.686 322.783 780.577 320.239C780.122 319.196 779.777 318.113 779.489 317.012L773.307 293.306C773.307 293.306 772.51 289.87 772.322 287.628C771.875 282.296 772.324 279.103 774.062 274.027C775.846 268.813 777.556 265.957 781.3 261.866C785.29 257.505 788.265 255.492 793.72 253.125C797.955 251.287 800.578 250.61 805.182 250.17C810.14 249.904 812.009 250.053 816.855 251.101C821.715 252.259 826.78 254.623 830.732 257.541C834.685 260.459 837.588 264.069 839.972 268.26C842.356 272.452 843.629 276.588 844.048 281.353C844.204 283.15 844.194 285.314 844.063 287.115L841.295 311.282C841.153 312.528 840.935 313.764 840.602 314.973C839.808 317.847 838.124 323.398 836.253 326.224C833.66 330.141 829.717 333.752 825.372 335.822ZM822.339 329.363C819.418 330.809 813.807 331.725 812.329 331.858C812.329 331.858 805.662 332.382 801.647 331.173C797.123 329.811 794.538 328.32 791.258 324.829C789.101 322.534 787.204 318.478 786.27 316.28C785.843 315.274 785.522 314.232 785.254 313.173L780.245 293.379C780.245 293.379 779.591 290.482 779.433 288.593C779.055 284.099 779.407 281.411 780.791 277.14C782.212 272.754 783.581 270.353 786.585 266.919C789.786 263.258 792.177 261.572 796.565 259.596C799.972 258.061 802.084 257.5 805.792 257.143C809.787 256.935 811.293 257.067 815.202 257.965C819.122 258.957 823.211 260.964 826.405 263.435C829.599 265.906 831.951 268.957 833.886 272.495C835.82 276.034 836.859 279.522 837.212 283.538C837.344 285.052 837.342 286.875 837.243 288.392L835.115 308.516C834.988 309.716 834.793 310.905 834.485 312.071C833.834 314.543 832.53 319.009 831.076 321.313C828.998 324.604 825.833 327.633 822.339 329.363Z" fill="black"/>
<path d="M880.09 881.233L866 875.001L867 717.001C867 717.001 855.935 571.001 855.5 560.001C852 471.501 840 364.001 837.5 357.5C835 350.999 830.5 341.001 819 340.001C782.128 336.796 763.376 359.501 750 387.001C732.472 423.036 721 517.001 721 517.001L731 578.501L744.841 611.151C748.272 619.244 756.21 624.501 765 624.501L767.5 743.501L750.752 877.965C750.332 881.338 752.647 884.442 756 885.001V900.001L763.5 900.001V876.978C760.574 876.978 758.306 874.422 758.654 871.518L774 743.414L772 627.831L763.118 518.236C763.04 517.273 763.148 516.304 763.437 515.383L793.216 420.226C793.604 418.985 792.677 417.723 791.376 417.723C790.553 417.723 789.82 418.246 789.553 419.025L756 516.778L761 576.812L764.427 615.999C764.466 616.448 764.113 616.834 763.662 616.834C757.501 616.834 751.936 613.151 749.527 607.481L736.5 576.812L727 516.778C727 516.778 741.321 414.424 759.999 380.217C775.465 351.893 797.861 346.326 811.367 345.83C818.883 345.554 826.783 348.708 829.166 355.842C834.915 373.052 843.098 421.99 846.5 560.302L817 878.978L836.974 886.943C841.049 888.567 843.589 892.658 843.238 897.03L843 900.001L850 900.001L849.617 894.058C849.241 888.23 845.516 883.15 840.071 881.039L824.5 875.001L839 717.001L851 577.001L860 717.001L858 878.941L877.881 886.941C881.067 888.223 883.373 891.051 883.987 894.43L885 900.001L892 900.001V899.524C892 891.607 887.33 884.435 880.09 881.233Z" fill="black"/>
<path fill-rule="evenodd" clip-rule="evenodd" d="M634.372 335.822C630.741 337.553 623.774 338.666 621.939 338.831C621.939 338.831 613.664 339.486 608.687 338.069C603.078 336.473 599.878 334.716 595.824 330.587C593.08 327.793 590.686 322.783 589.577 320.239C589.122 319.196 588.776 318.113 588.489 317.012L582.307 293.306C582.307 293.306 581.51 289.87 581.322 287.628C580.875 282.296 581.324 279.103 583.062 274.027C584.846 268.813 586.556 265.957 590.3 261.866C594.29 257.505 597.265 255.492 602.72 253.125C606.955 251.287 609.578 250.61 614.182 250.17C619.14 249.904 621.009 250.053 625.855 251.101C630.715 252.259 635.78 254.623 639.732 257.541C643.685 260.459 646.588 264.069 648.972 268.26C651.356 272.452 652.629 276.588 653.048 281.353C653.204 283.15 653.194 285.314 653.063 287.115L650.295 311.282C650.153 312.528 649.935 313.764 649.602 314.973C648.808 317.847 647.124 323.398 645.253 326.224C642.66 330.141 638.717 333.752 634.372 335.822ZM631.339 329.363C628.418 330.809 622.807 331.725 621.329 331.858C621.329 331.858 614.662 332.382 610.647 331.173C606.123 329.811 603.538 328.32 600.258 324.829C598.101 322.534 596.203 318.478 595.27 316.28C594.843 315.274 594.522 314.232 594.254 313.173L589.245 293.379C589.245 293.379 588.591 290.482 588.433 288.593C588.055 284.099 588.407 281.411 589.791 277.14C591.212 272.754 592.581 270.353 595.585 266.919C598.786 263.258 601.177 261.572 605.565 259.596C608.972 258.061 611.084 257.5 614.792 257.143C618.787 256.935 620.293 257.067 624.202 257.965C628.122 258.957 632.211 260.964 635.405 263.435C638.599 265.906 640.951 268.957 642.886 272.495C644.82 276.034 645.859 279.522 646.212 283.538C646.344 285.052 646.342 286.875 646.243 288.392L644.115 308.516C643.988 309.716 643.793 310.905 643.485 312.071C642.834 314.543 641.53 319.009 640.076 321.313C637.998 324.604 634.833 327.633 631.339 329.363Z" fill="black"/>
<path d="M689.09 881.233L675 875.001L676 717.001C676 717.001 664.935 571.001 664.5 560.001C661 471.501 649 364.001 646.5 357.5C644 350.999 639.5 341.001 628 340.001C591.128 336.796 572.376 359.501 559 387.001C541.472 423.036 530 517.001 530 517.001L540 578.501L553.841 611.151C557.272 619.244 565.21 624.501 574 624.501L576.5 743.501L559.752 877.965C559.332 881.338 561.647 884.442 565 885.001V900.001L572.5 900.001V876.978C569.574 876.978 567.306 874.422 567.654 871.518L583 743.414L581 627.831L572.118 518.236C572.04 517.273 572.148 516.304 572.437 515.383L602.216 420.226C602.604 418.985 601.677 417.723 600.376 417.723C599.553 417.723 598.82 418.246 598.553 419.025L565 516.778L570 576.812L573.427 615.999C573.466 616.448 573.113 616.834 572.662 616.834C566.501 616.834 560.936 613.151 558.527 607.481L545.5 576.812L536 516.778C536 516.778 550.321 414.424 568.999 380.217C584.465 351.893 606.861 346.326 620.367 345.83C627.883 345.554 635.783 348.708 638.166 355.842C643.915 373.052 652.098 421.99 655.5 560.302L626 878.978L645.974 886.943C650.049 888.567 652.589 892.658 652.238 897.03L652 900.001L659 900.001L658.617 894.058C658.241 888.23 654.516 883.15 649.071 881.039L633.5 875.001L648 717.001L660 577.001L669 717.001L667 878.941L686.881 886.941C690.067 888.223 692.373 891.051 692.987 894.43L694 900.001L701 900.001V899.524C701 891.607 696.33 884.435 689.09 881.233Z" fill="black"/>
</svg>
